icons/op-bookmark-filled-24.svg

<svg width="24" height="24" viewBox="0 0 24 24" fill="none" xmlns="http://www.w3.org/2000/svg">
<path fill-rule="evenodd" clip-rule="evenodd" d="M6 19.5V6C6 5.46957 6.21071 4.96086 6.58579 4.58579C6.96086 4.21071 7.46957 4 8 4H16C16.5304 4 17.0391 4.21071 17.4142 4.58579C17.7893 4.96086 18 5.46957 18 6V19.5C18.0001 19.5868 17.9775 19.6722 17.9346 19.7476C17.8916 19.8231 17.8298 19.8861 17.7551 19.9304C17.6804 19.9747 17.5955 19.9988 17.5087 20.0003C17.4219 20.0018 17.3362 19.9807 17.26 19.939L12 17.069L6.74 19.939C6.66383 19.9807 6.57812 20.0018 6.4913 20.0003C6.40449 19.9988 6.31957 19.9747 6.24489 19.9304C6.17022 19.8861 6.10836 19.8231 6.06542 19.7476C6.02248 19.6722 5.99994 19.5868 6 19.5ZM12.16 8.1C12.1454 8.07001 12.1226 8.04474 12.0943 8.02706C12.066 8.00938 12.0334 8 12 8C11.9666 8 11.9339 8.00938 11.9057 8.02706C11.8774 8.04474 11.8546 8.07001 11.84 8.1L11.206 9.385C11.1933 9.41099 11.1745 9.4335 11.1511 9.45058C11.1278 9.46765 11.1006 9.47878 11.072 9.483L9.652 9.689C9.61931 9.69396 9.58865 9.70793 9.56345 9.72934C9.53825 9.75075 9.51952 9.77875 9.50934 9.81021C9.49917 9.84167 9.49796 9.87534 9.50584 9.90745C9.51373 9.93956 9.53041 9.96884 9.554 9.992L10.58 10.993C10.622 11.034 10.641 11.093 10.631 11.151L10.39 12.565C10.3846 12.5976 10.3883 12.6312 10.4009 12.6618C10.4135 12.6924 10.4343 12.7189 10.4611 12.7384C10.4879 12.7578 10.5196 12.7693 10.5526 12.7718C10.5856 12.7742 10.6187 12.7673 10.648 12.752L11.918 12.084C11.9435 12.0707 11.9718 12.0637 12.0005 12.0637C12.0292 12.0637 12.0575 12.0707 12.083 12.084L13.353 12.752C13.3823 12.7671 13.4152 12.7737 13.4481 12.7711C13.4809 12.7686 13.5124 12.757 13.5391 12.7376C13.5657 12.7182 13.5864 12.6918 13.599 12.6613C13.6115 12.6309 13.6153 12.5975 13.61 12.565L13.368 11.15C13.3629 11.1216 13.3648 11.0924 13.3735 11.0648C13.3822 11.0373 13.3975 11.0123 13.418 10.992L14.446 9.991C14.4696 9.96784 14.4863 9.93856 14.4942 9.90645C14.502 9.87434 14.5008 9.84067 14.4907 9.80921C14.4805 9.77775 14.4617 9.74974 14.4365 9.72834C14.4114 9.70693 14.3807 9.69296 14.348 9.688L12.928 9.482C12.8994 9.47778 12.8722 9.46665 12.8489 9.44958C12.8255 9.4325 12.8067 9.40999 12.794 9.384L12.16 8.1Z" fill="black"/>
</svg>

<svg xmlns="http://www.w3.org/2000/svg" width="24" height="24" viewBox="0 0 24 24"><path d="M6 19.5V6a2 2 0 0 1 2-2h8a2 2 0 0 1 2 2v13.5a.502.502 0 0 1-.245.43.492.492 0 0 1-.495.009L12 17.069l-5.26 2.87a.492.492 0 0 1-.495-.009A.499.499 0 0 1 6 19.5Zm6.16-11.4a.179.179 0 0 0-.32 0l-.634 1.285a.176.176 0 0 1-.134.098l-1.42.206a.185.185 0 0 0-.089.04.178.178 0 0 0-.057.178.172.172 0 0 0 .048.085l1.026 1.001c.042.041.061.1.051.158l-.241 1.414a.179.179 0 0 0 .163.207.183.183 0 0 0 .095-.02l1.27-.668a.18.18 0 0 1 .165 0l1.27.668a.173.173 0 0 0 .095.019.177.177 0 0 0 .162-.206l-.242-1.415a.188.188 0 0 1 .005-.085.183.183 0 0 1 .045-.073l1.028-1.001a.172.172 0 0 0 .048-.085.178.178 0 0 0-.003-.097.178.178 0 0 0-.143-.121l-1.42-.206a.172.172 0 0 1-.079-.032.184.184 0 0 1-.055-.066Z"/></svg>
